images/logo/logo.svg

<svg width="75" height="76" viewBox="0 0 75 76" fill="none" xmlns="http://www.w3.org/2000/svg">
<path d="M75 37.6471C75 32.7032 74.03 27.8077 72.1455 23.2402C70.2609 18.6726 67.4987 14.5224 64.0165 11.0266C60.5343 7.53072 56.4003 4.75765 51.8506 2.86571C47.3009 0.97377 42.4246 -2.16104e-07 37.5 0C32.5754 2.16104e-07 27.6991 0.97377 23.1494 2.86571C18.5997 4.75765 14.4657 7.53072 10.9835 11.0266C7.5013 14.5224 4.73907 18.6726 2.85452 23.2402C0.969965 27.8077 -4.30519e-07 32.7032 0 37.6471H2.80598C2.80598 33.0731 3.70337 28.544 5.44691 24.3182C7.19045 20.0924 9.74599 16.2528 12.9676 13.0185C16.1893 9.78421 20.0139 7.21865 24.2232 5.46827C28.4324 3.7179 32.9439 2.81699 37.5 2.81699C42.0561 2.81699 46.5676 3.7179 50.7768 5.46827C54.9861 7.21865 58.8107 9.78421 62.0324 13.0185C65.254 16.2528 67.8096 20.0924 69.5531 24.3182C71.2966 28.5439 72.194 33.0731 72.194 37.6471H75Z" fill="white"/>
<path d="M75 37.647C75 42.5909 74.03 47.4864 72.1455 52.0539C70.2609 56.6215 67.4987 60.7716 64.0165 64.2675C60.5343 67.7634 56.4003 70.5364 51.8506 72.4284C47.3009 74.3203 42.4246 75.2941 37.5 75.2941C32.5754 75.2941 27.6991 74.3203 23.1494 72.4284C18.5997 70.5364 14.4657 67.7634 10.9835 64.2675C7.5013 60.7716 4.73907 56.6215 2.85452 52.0539C0.969965 47.4864 -4.30519e-07 42.5909 0 37.647H2.80598C2.80598 42.221 3.70337 46.7501 5.44691 50.9759C7.19045 55.2017 9.74599 59.0413 12.9676 62.2756C16.1893 65.5099 20.0139 68.0754 24.2232 69.8258C28.4324 71.5762 32.9439 72.4771 37.5 72.4771C42.0561 72.4771 46.5676 71.5762 50.7768 69.8258C54.9861 68.0754 58.8107 65.5099 62.0324 62.2756C65.254 59.0413 67.8096 55.2017 69.5531 50.9759C71.2966 46.7501 72.194 42.221 72.194 37.647H75Z" fill="white"/>
<path d="M50.2941 18.8235C50.2941 19.9823 50.0659 21.1296 49.6224 22.2001C49.179 23.2707 48.5291 24.2434 47.7097 25.0627C46.8904 25.882 45.9177 26.532 44.8472 26.9754C43.7767 27.4188 42.6293 27.6471 41.4706 27.6471C40.3118 27.6471 39.1645 27.4188 38.0939 26.9754C37.0234 26.532 36.0507 25.882 35.2314 25.0627C34.412 24.2434 33.7621 23.2707 33.3187 22.2001C32.8753 21.1296 32.647 19.9823 32.647 18.8235H35.0322C35.0322 19.669 35.1987 20.5062 35.5223 21.2874C35.8459 22.0685 36.3201 22.7783 36.918 23.3761C37.5158 23.974 38.2256 24.4482 39.0067 24.7718C39.7878 25.0954 40.6251 25.2619 41.4706 25.2619C42.3161 25.2619 43.1533 25.0954 43.9344 24.7718C44.7156 24.4482 45.4253 23.974 46.0232 23.3761C46.621 22.7783 47.0953 22.0685 47.4188 21.2874C47.7424 20.5062 47.9089 19.669 47.9089 18.8235H50.2941Z" fill="white"/>
<path d="M52.6471 18.8236C52.6471 17.6648 52.4188 16.5175 51.9754 15.4469C51.532 14.3764 50.882 13.4037 50.0627 12.5844C49.2434 11.765 48.2707 11.1151 47.2001 10.6717C46.1296 10.2283 44.9823 10 43.8235 10C42.6648 10 41.5174 10.2283 40.4469 10.6717C39.3764 11.1151 38.4037 11.765 37.5844 12.5844C36.765 13.4037 36.1151 14.3764 35.6717 15.4469C35.2282 16.5175 35 17.6648 35 18.8236L37.3852 18.8236C37.3852 17.9781 37.5517 17.1409 37.8753 16.3597C38.1988 15.5786 38.6731 14.8688 39.2709 14.271C39.8688 13.6731 40.5785 13.1989 41.3597 12.8753C42.1408 12.5517 42.978 12.3852 43.8235 12.3852C44.669 12.3852 45.5062 12.5517 46.2874 12.8753C47.0685 13.1989 47.7783 13.6731 48.3761 14.271C48.974 14.8688 49.4482 15.5786 49.7718 16.3597C50.0954 17.1409 50.2619 17.9781 50.2619 18.8236L52.6471 18.8236Z" fill="white"/>
<path d="M25.2941 18.8235C25.2941 19.9823 25.0659 21.1296 24.6225 22.2001C24.179 23.2707 23.5291 24.2434 22.7098 25.0627C21.8904 25.882 20.9177 26.532 19.8472 26.9754C18.7767 27.4188 17.6293 27.6471 16.4706 27.6471C15.3119 27.6471 14.1645 27.4188 13.094 26.9754C12.0235 26.532 11.0508 25.882 10.2314 25.0627C9.41208 24.2434 8.76214 23.2707 8.31872 22.2001C7.87529 21.1296 7.64706 19.9823 7.64706 18.8235H10.0322C10.0322 19.669 10.1988 20.5062 10.5223 21.2874C10.8459 22.0685 11.3201 22.7783 11.918 23.3761C12.5158 23.974 13.2256 24.4482 14.0067 24.7718C14.7879 25.0954 15.6251 25.2619 16.4706 25.2619C17.3161 25.2619 18.1533 25.0954 18.9344 24.7718C19.7156 24.4482 20.4253 23.974 21.0232 23.3761C21.6211 22.7783 22.0953 22.0685 22.4189 21.2874C22.7424 20.5062 22.9089 19.669 22.9089 18.8235H25.2941Z" fill="white"/>
<path d="M25.2941 18.8236C25.2941 17.6648 25.0659 16.5175 24.6225 15.4469C24.179 14.3764 23.5291 13.4037 22.7098 12.5844C21.8904 11.765 20.9177 11.1151 19.8472 10.6717C18.7767 10.2283 17.6293 10 16.4706 10C15.3119 10 14.1645 10.2283 13.094 10.6717C12.0235 11.1151 11.0508 11.765 10.2314 12.5844C9.41208 13.4037 8.76214 14.3764 8.31872 15.4469C7.87529 16.5175 7.64706 17.6648 7.64706 18.8236L10.0322 18.8236C10.0322 17.9781 10.1988 17.1409 10.5223 16.3597C10.8459 15.5786 11.3201 14.8688 11.918 14.271C12.5158 13.6731 13.2256 13.1989 14.0067 12.8753C14.7879 12.5517 15.6251 12.3852 16.4706 12.3852C17.3161 12.3852 18.1533 12.5517 18.9344 12.8753C19.7156 13.1989 20.4253 13.6731 21.0232 14.271C21.6211 14.8688 22.0953 15.5786 22.4189 16.3597C22.7424 17.1409 22.9089 17.9781 22.9089 18.8236L25.2941 18.8236Z" fill="white"/>
<path d="M27.059 49.1177L16.6442 67.3613L13.5295 66.3236L25.2942 45.5883L27.059 49.1177Z" fill="white"/>
<path d="M40.1003 26.9117L29.5688 44.9751L26.4572 43.932L37.2984 25.2941L40.1003 26.9117Z" fill="white"/>
<path d="M43.1471 29.8624L34.8493 44.1239L31.1764 44.1177L40.2941 28.2353L43.1471 29.8624Z" fill="white"/>
<path d="M15.9895 26.9118L27.9644 47.6874L29.8633 44.4713L18.7913 25.2941L15.9895 26.9118Z" fill="white"/>
<path d="M28.8419 49.1728L40.4593 68.9203L46.385 73.0877L30.5883 45.5883L28.8419 49.1728Z" fill="white"/>
<path d="M33.9357 45.5885L44.7388 64.559L50.0062 67.5863L37.3859 45.5884L33.9357 45.5885Z" fill="white"/>
<path d="M40.2941 28.2354H49.1176L47.3529 31.4706H40.2941V28.2354Z" fill="white"/>
<path d="M37.3529 33.8235H46.1765L44.4118 37.0588H37.3529V33.8235Z" fill="white"/>
<path d="M20.5883 59.1177H32.7941L30.7059 55.8824H20.5883V59.1177Z" fill="white"/>
<path d="M46.2885 67.6471H56.1763L61.441 64.4118H44.6708L46.2885 67.6471Z" fill="white"/>
<path d="M33.8235 40.8823H42.6471L40.8824 44.1176H33.8235V40.8823Z" fill="white"/>
<path d="M53.4803 28.2353L45.1825 44.1239L41.5096 44.1177L50.2941 28.2353L53.4803 28.2353Z" fill="white"/>
<path d="M63.7302 28.2353L55.4324 44.1239L51.7595 44.1177L60.544 28.2353L63.7302 28.2353Z" fill="white"/>
<path d="M44.1567 40.8823H52.9802L51.2155 44.1176H44.1567V40.8823Z" fill="white"/>
</svg>

<svg width="75" height="76" fill="none" xmlns="http://www.w3.org/2000/svg"><path d="M75 37.647c0-4.944-.97-9.84-2.855-14.407a37.657 37.657 0 00-8.129-12.213 37.49 37.49 0 00-12.165-8.161 37.373 37.373 0 00-28.702 0 37.49 37.49 0 00-12.166 8.16A37.656 37.656 0 002.855 23.24 37.775 37.775 0 000 37.647h2.806c0-4.574.897-9.103 2.64-13.329a34.84 34.84 0 017.522-11.3 34.686 34.686 0 0111.255-7.55 34.576 34.576 0 0126.554 0 34.686 34.686 0 0111.255 7.55 34.84 34.84 0 017.521 11.3 34.949 34.949 0 012.641 13.33H75z" fill="#fff"/><path d="M75 37.647c0 4.944-.97 9.84-2.855 14.407a37.658 37.658 0 01-8.129 12.213 37.491 37.491 0 01-12.165 8.161 37.373 37.373 0 01-28.702 0 37.491 37.491 0 01-12.166-8.16 37.657 37.657 0 01-8.128-12.214A37.775 37.775 0 010 37.647h2.806c0 4.574.897 9.103 2.64 13.329a34.84 34.84 0 007.522 11.3 34.686 34.686 0 0011.255 7.55 34.576 34.576 0 0026.554 0 34.686 34.686 0 0011.255-7.55 34.84 34.84 0 007.521-11.3 34.95 34.95 0 002.641-13.329H75zM50.294 18.823a8.822 8.822 0 01-12.2 8.152 8.823 8.823 0 01-5.447-8.152h2.385a6.438 6.438 0 1012.877 0h2.385z" fill="#fff"/><path d="M52.647 18.824a8.824 8.824 0 00-17.647 0h2.385a6.438 6.438 0 1112.877 0h2.385zm-27.353-.001a8.823 8.823 0 11-17.647 0h2.385a6.44 6.44 0 0010.991 4.553 6.438 6.438 0 001.886-4.553h2.385z" fill="#fff"/><path d="M25.294 18.824a8.824 8.824 0 10-17.647 0h2.385a6.44 6.44 0 0110.991-4.553 6.438 6.438 0 011.886 4.553h2.385zm1.765 30.294L16.644 67.36l-3.114-1.037 11.764-20.736 1.765 3.53zM40.1 26.912L29.57 44.975l-3.112-1.043 10.841-18.638 2.802 1.618zm3.047 2.95L34.85 44.124l-3.673-.006 9.118-15.883 2.853 1.627z" fill="#fff"/><path d="M15.99 26.912l11.974 20.775 1.9-3.216L18.79 25.294l-2.802 1.618zm12.852 22.261L40.459 68.92l5.926 4.168-15.797-27.5-1.746 3.585zm5.094-3.584l10.803 18.97 5.267 3.027-12.62-21.998h-3.45zm6.358-17.354h8.824l-1.765 3.236h-7.059v-3.236zm-2.941 5.589h8.823l-1.764 3.235h-7.06v-3.235zM20.588 59.118h12.206l-2.088-3.236H20.588v3.236z" fill="#fff"/><path d="M46.288 67.647h9.888l5.265-3.235h-16.77l1.617 3.235zM33.824 40.882h8.823l-1.765 3.236h-7.058v-3.236zM53.48 28.235l-8.297 15.889-3.673-.006 8.784-15.883h3.186zm10.25 0l-8.298 15.889-3.672-.006 8.784-15.883h3.186z" fill="#fff"/><path d="M44.157 40.882h8.823l-1.764 3.236h-7.06v-3.236z" fill="#fff"/></svg>
